src/components/00-materials/images-raw/P&C/Sun.svg

<svg xmlns="http://www.w3.org/2000/svg" viewBox="0 0 96 96"><g fill="none" stroke="#00008f" stroke-linecap="round" stroke-linejoin="round" stroke-width="2"><circle cx="48" cy="48" r="20.31"/><path d="M48 15.5v7.11m0 50.78v7.11M34.26 18.54l3.01 6.45m21.46 46.02l3.01 6.45M23.1 27.11l5.45 4.57m38.9 32.64l5.45 4.57m-56.29-29.3l6.86 1.84m49.06 13.14l6.86 1.84m-63.4-2.77L23 52.41m50-8.82l7.01-1.23M21.38 66.64l5.82-4.08m41.6-29.12l5.82-4.08M31.75 76.15l3.55-6.16m25.4-43.98l3.55-6.16"/></g></svg>

<svg xmlns="http://www.w3.org/2000/svg" viewBox="0 0 96 96"><defs><style>.cls-2{fill:none;stroke:#00008f;stroke-linecap:round;stroke-linejoin:round;stroke-width:2px}</style></defs><g id="Layer_2" ><g id="icons"><circle class="cls-2" cx="48" cy="48" r="20.31"/><path class="cls-2" d="M48 15.5v7.11M48 73.39v7.11M34.26 18.54l3.01 6.45M58.73 71.01l3.01 6.45M23.1 27.11l5.45 4.57M67.45 64.32l5.45 4.57M16.61 39.59l6.86 1.84M72.53 54.57l6.86 1.84M15.99 53.64L23 52.41M73 43.59l7.01-1.23M21.38 66.64l5.82-4.08M68.8 33.44l5.82-4.08M31.75 76.15l3.55-6.16M60.7 26.01l3.55-6.16"/></g></g></svg>
